X:420
T:Far From Home
M:C|
L:1/8
Q:200
S:THSP
R:reel
K:G
"G"GEDE G2GA|B2BA Bcd2|GEDE G2GB|"C"AGAB "D"AGE2|
"G"GEDE G2GA|B2BA Bcd2|"C"edef gedc
|1 "D"BGAF "G"G2BA:|2 "D"BGAF "G"G2Bd||:
"G"g3e "D"f3d|"Em"edef edB2|"G"gedB G2GB|"C"AGAB "D"AGE2|
"G"GEDE G2GA|B2BA Bcd2|"C"edef "G"gedc
|1 "D"BGAF "G"G2Bd:|2 "D"BGAF "G"G2BA|]
